packages/foundations/assets/icons/functional/images/devices/mobile_phone_disabled_20.svg

<svg width="20" height="20" viewBox="0 0 20 20" fill="none" xmlns="http://www.w3.org/2000/svg">
<g clip-path="url(#clip0_185_739)">
<path fill-rule="evenodd" clip-rule="evenodd" d="M3 15.9844C3 16.5469 3.5 17.0156 4.0312 17.0156C4.2812 17.0156 4.5 16.9219 4.7188 16.7031L16.7188 4.70309C16.9375 4.51559 17 4.26559 17 4.01559C17 3.48439 16.5938 2.98439 16.0312 2.98439C15.75 2.98439 15.5 3.10939 15.3125 3.29689L15 3.57809C14.9688 2.70309 14.2812 2.01559 13.4062 2.01559H6.6562C5.75 2.01559 5 2.73439 5 3.60939V13.5781L3.3125 15.2969C3.0938 15.5156 3 15.7656 3 15.9844ZM6.25 17.9844H13.4062C14.3125 17.9844 15 17.2656 15 16.3906V9.23439L13 11.2344V16.0156H8.25L6.25 17.9844ZM7 11.5781V4.01559H8V5.01559H12V4.01559H13V5.57809L7 11.5781ZM9.25 15.0156H11.0312V13.2344L9.25 15.0156Z" fill="#1A1C1F"/>
</g>
<defs>
<clipPath id="clip0_185_739">
<rect width="20" height="20" fill="white"/>
</clipPath>
</defs>
</svg>

<svg xmlns="http://www.w3.org/2000/svg" width="20" height="20" fill="none"><g clip-path="url(#a)"><path fill="#1A1C1F" fill-rule="evenodd" d="M3 15.984c0 .563.5 1.032 1.031 1.032.25 0 .469-.094.688-.313l12-12c.218-.187.281-.437.281-.687 0-.532-.406-1.032-.969-1.032-.281 0-.531.125-.718.313L15 3.578c-.031-.875-.719-1.562-1.594-1.562h-6.75C5.75 2.016 5 2.734 5 3.609v9.97l-1.687 1.718c-.22.219-.313.469-.313.687m3.25 2h7.156A1.58 1.58 0 0 0 15 16.391V9.234l-2 2v4.782H8.25zM7 11.578V4.016h1v1h4v-1h1v1.562zm2.25 3.438h1.781v-1.782z" clip-rule="evenodd"/></g><defs><clipPath id="a"><path fill="#fff" d="M0 0h20v20H0z"/></clipPath></defs></svg>
